Adwaita++/apps/scalable/facebook.svg

<svg height="128" width="128" xmlns="http://www.w3.org/2000/svg" xmlns:xlink="http://www.w3.org/1999/xlink">
  <linearGradient id="e" gradientTransform="matrix(1.0015 0 0 .99993 72.09 56.015)" gradientUnits="userSpaceOnUse" x1="43.844" x2="-60" y1="234" y2="234">
    <stop offset="0" stop-color="#d5d3cf"/>
    <stop offset=".038" stop-color="#e3e2df"/>
    <stop offset=".077" stop-color="#c0bfbc"/>
    <stop offset=".923" stop-color="#c0bfbc"/>
    <stop offset=".962" stop-color="#e3e2df"/>
    <stop offset="1" stop-color="#d5d3cf"/>
  </linearGradient>
  <g transform="translate(0 -172)">
    <rect fill="url(#e)" height="48" rx="8" width="104" x="12" y="240"/>
    <path d="m20 10c-4.432 0-8 3.568-8 8v42 42c0 4.432 3.568 8 8 8h44 44c4.432 0 8-3.568 8-8v-42-42c0-4.432-3.568-8-8-8z" fill="#3b5999" transform="translate(0 172)"/>
    <path d="m84.740049 198.31024s-15.570345 0-15.570345 15.57035v15.57035h-11.677759v15.57035h11.677759v35.03327h15.570345v-35.03327h13.624051l1.9463-15.57035h-15.570351v-11.67776c0-3.89259 3.892588-3.89259 3.892588-3.89259h11.677763v-15.57035z" opacity=".2"/>
    <g fill="#fff">
      <path d="m84.740049 196.36562s-15.570345 0-15.570345 15.57035v15.57035h-11.677759v15.57035h11.677759v38.92586h15.570345v-38.92586h13.624051l1.9463-15.57035h-15.570351v-11.67776c0-3.89259 3.892588-3.89259 3.892588-3.89259h11.677763v-15.57035z"/>
      <path d="m-100.45854 197.87741c-2.32675 0-4.19922 1.79927-4.19922 4.19922v1c0-2.39995 1.87247-4.19922 4.19922-4.19922v.002h47.601558c2.326731-.00004 4.199219 1.87047 4.199219 4.19722v-1c0-2.32675-1.872488-4.19922-4.199219-4.19922z" opacity=".1"/>
    </g>
  </g>
</svg>

<svg xmlns="http://www.w3.org/2000/svg" xmlns:xlink="http://www.w3.org/1999/xlink" width="128" height="128" version="1.0">
 <defs>
  <linearGradient id="a">
   <stop id="stop2" offset="0" stop-color="#68676b"/>
   <stop id="stop4" offset=".8" stop-color="#424048"/>
   <stop id="stop6" offset="1" stop-color="#241f31"/>
  </linearGradient>
  <radialGradient id="d" cx="279.422" cy="446.483" r="224" fx="279.422" fy="446.483" gradientTransform="matrix(1.34416 .0006 -.00062 1.38763 -121.22 -718.103)" gradientUnits="userSpaceOnUse" xlink:href="#a"/>
  <linearGradient id="e" x1="43.844" x2="-60" y1="234" y2="234" gradientTransform="matrix(1.0015 0 0 .99993 72.09 56.015)" gradientUnits="userSpaceOnUse" xlink:href="#b"/>
  <linearGradient id="b">
   <stop id="stop11" offset="0" stop-color="#d5d3cf"/>
   <stop id="stop13" offset=".038" stop-color="#e3e2df"/>
   <stop id="stop15" offset=".077" stop-color="#c0bfbc"/>
   <stop id="stop17" offset=".923" stop-color="#c0bfbc"/>
   <stop id="stop19" offset=".962" stop-color="#e3e2df"/>
   <stop id="stop21" offset="1" stop-color="#d5d3cf"/>
  </linearGradient>
 </defs>
 <g transform="translate(0 -172)">
  <rect fill="url(#e)" width="104" height="48" x="12" y="240" rx="8" ry="8"/>
  <path style="fill:#3b5999" d="M 20 10 C 15.568 10 12 13.568 12 18 L 12 60 L 12 102 C 12 106.432 15.568 110 20 110 L 64 110 L 108 110 C 112.432 110 116 106.432 116 102 L 116 60 L 116 18 C 116 13.568 112.432 10 108 10 L 20 10 z" transform="translate(0,172)"/>
  <path style="opacity:0.2" d="m 84.740049,198.31024 c 0,0 -15.570345,0 -15.570345,15.57035 v 15.57035 H 57.491945 v 15.57035 h 11.677759 v 35.03327 H 84.740049 V 245.02129 H 98.3641 l 1.9463,-15.57035 H 84.740049 v -11.67776 c 0,-3.89259 3.892588,-3.89259 3.892588,-3.89259 H 100.3104 v -15.57035 z"/>
  <path style="fill:#ffffff" d="m 84.740049,196.36562 c 0,0 -15.570345,0 -15.570345,15.57035 v 15.57035 H 57.491945 v 15.57035 h 11.677759 v 38.92586 H 84.740049 V 243.07667 H 98.3641 l 1.9463,-15.57035 H 84.740049 v -11.67776 c 0,-3.89259 3.892588,-3.89259 3.892588,-3.89259 H 100.3104 v -15.57035 z"/>
  <path style="opacity:0.1;fill:#ffffff" d="m -100.45854,197.87741 c -2.32675,0 -4.19922,1.79927 -4.19922,4.19922 v 1 c 0,-2.39995 1.87247,-4.19922 4.19922,-4.19922 v 0.002 h 47.601558 c 2.326731,-4e-5 4.199219,1.87047 4.199219,4.19722 v -1 c 0,-2.32675 -1.872488,-4.19922 -4.199219,-4.19922 z"/>
 </g>
</svg>
